X:24
T:121. Morrisons' Reel [The Dunmore Lassies]
S:Mike Rafferty
Z:Lesl
M:C|
L:1/8
K:Em
D|:~E3F ~G3A|Beed BEED|~E3F G2BG|A2BA GBFB|
~E3F ~G3A|Beed ~e3f|gefd edBG|1 A2BA GBFB:|2 A2BA GEE2||
|:gfeg fded|B~e3 B~e3|gfeg fdBG|A2BA G~E3|
gfeg fded|Be~ed ~e3f|g2fd edBG|1 A2BA GEE2:|2 A2BA GBFB|E8||

